X:1
T:3.  Nun komm, der Heiden Heiland
T:Hugo Distler
T:St. Ambrose (4th cent.) Tr., Martin Luther (1523)
T:3.  Come Now, O Nations' Savior Nun komm der Heiden Heiland Advent
T:Bärenreiter
T:Bärenreiter
C:Hugo Distler
Z:St. Ambrose (4th cent.)
Z:Tr., Martin Luther (1523)
Z:Bärenreiter
%%score [ ( 1 2 ) ( 3 4 ) ( 5 6 ) ]
L:1/8
Q:1/4=120
M:2/2
K:F
V:1 treble nm="Sop."
V:2 treble 
V:3 treble nm="Alto"
V:4 treble 
V:5 bass nm="Bar."
V:6 bass 
V:1
 G4 | G4 F4 | (B4 A2) G2 | A4 !breath!G4 |[M:2/4] G4 |[M:2/2] B4 c4- | c4 B4 | c4 d4 | !breath!B8 | %9
w: 1.  Come|now, O|na- * tions'|Sav- ior,|the|Child of|_ the|Vir- gin|dear.|
w: 2.  His|path, from|God _ the|Fa- ther|here|then back|_ to|God re-|turns.|
w: 3.  He|left His|heav'n- * ly|man- sion,|left|as well|_ His|king- ly|throne,|
w: 4.  Your|man- ger|bright- * ly|shin- ing,|the|night its|_ light|en- hanc-|ing,|
w: 5.  Give|praise to|God _ the|Fa- ther,|and|praise to|_ His|on- ly|Son,|
 B4 c4 | d4 B2 (c2- | c2 B4) A2 | !breath!G8 | G8 | G4 F4 | B4 (A2 G2) | A8 | G4 x4 |] %18
w: All the|world in won-|* * der|stands:|God|for Him|such birth _|com-|mands.|
w: He has|passed in- to|_ _ Hell's|deeps|and|then to|God's heav'n- *|ly|seat.|
w: God by|birth, he- ro-|* * ic|man,|fol-|l'wing God|the Fa- *|ther's|plan.|
w: dark- ness|shall not en-|* * ter|in|where|faith its|light will _|out-|shine.|
w: give praise|to the Ho-|* * ly|Ghost,|now|and in|e- ter- *|ni-|ty!|
V:2
 x4 | x8 | x8 | x8 |[M:2/4] x4 |[M:2/2] x8 | x8 | x8 | x8 | x8 | x8 | x8 | x8 | x8 | x8 | x8 | x8 | %17
 =B4 x4 |] %18
V:3
 E4 | (E4- EDEF | G)F D3 C (D2- | DE ^F2) G4- |[M:2/4] !breath!G2 (_E2 |[M:2/2] =F2 G2) (_A4- | %6
w: 1.  Come|now, _ _ _ _|_ O na- tions' Sav-|* * * ior,|_ the|_ _ Child|
w: 2.  His|path, _ _ _ _|_ from God the Fa-|* * * ther|_ here|_ _ then|
w: 3.  He|left _ _ _ _|_ His heav'n- ly man-|* * * sion,|_ left|_ _ as|
w: 4.  Your|man- * * * *|* ger bright- ly shin-|* * * ing,|_ the|_ _ night|
w: 5.  Give|praise _ _ _ _|_ to God the Fa-|* * * ther,|_ and|_ _ praise|
 AGF_E) D3 D | (F2 G2) =A4 | (B3 A G2 F_E | !breath!D4) A2 c2 | F6 E2 | (AG F3 E) D2 | !breath!E8 | %13
w: _ _ _ _ of the|Vir- * gin|dear. _ _ _ _|_ All the|world in|won- * * * der|stands:|
w: _ _ _ _ back to|God _ re-|turns. _ _ _ _|_ He has|passed in-|to _ _ _ Hell's|deeps|
w: _ _ _ _ well His|king- * ly|throne, _ _ _ _|_ God by|birth, he-|ro- * * * ic|man,|
w: _ _ _ _ its light|en- * hanc-|ing, _ _ _ _|_ dark- ness|shall not|en- * * * ter|in|
w: _ _ _ _ to His|on- * ly|Son, _ _ _ _|_ give praise|to the|Ho- * * * ly|Ghost,|
 (_E4- EFG_A) | B4 _A2 (G2- | GF !breath!_E2) (F3 E) | D2 _E3 D C2 | G4 x4 |] %18
w: God _ _ _ _|for Him such,|_ _ _ for _|Him such birth com-|mands.|
w: and _ _ _ _|then to God's,|_ _ _ then _|to God's heav'n- ly|seat.|
w: fol- * * * *|l'wing God's plan.|_ _ _ fol- *|l'wing the Fa- ther's|plan.|
w: where _ _ _ _|faith its light,|_ _ _ faith _|its light will out-|shine.|
w: now _ _ _ _|and ev- er,|_ _ _ and _|in e- ter- ni-|ty!|
V:4
 x4 | x8 | x8 | x8 |[M:2/4] x4 |[M:2/2] x8 | x8 | x8 | x8 | x8 | x8 | x8 | x8 | x8 | x8 | x8 | x8 | %17
 D4 x4 |] %18
V:5
 C,4 | C,4 D,4 | _E,4 (F,2 G,2) | D,4 !breath!G,4 |[M:2/4] _E,4 |[M:2/2] B,,4 F,4 | C,4 (G,4 | %7
w: 1.  Come|now, O|na- tions' _|Sav- ior,|the|Child of|the Vir-|
w: 2.  His|path, from|God the _|Fa- ther|here|then back|to God|
w: 3.  He|left His|heav'n- ly _|man- sion,|left|as well|His king-|
w: 4.  Your|man- ger|bright- ly _|shin- ing,|the|night its|light en-|
w: 5.  Give|praise to|God the _|Fa- ther,|and|praise to|His on-|
 F,4) F,4 | !breath!B,8 | G,4 F,4 | (B,3 A,) G,4 | A,4 B,4 | !breath!C8 | C,8 | _E,4 F,4 | %15
w: * gin|dear.|All the|world _ in|won- der|stands:|God|for Him|
w: _ re-|turns.|He has|passed _ in-|to Hell's|deeps|and|then to|
w: * ly|throne,|God by|birth, _ he-|ro- ic|man,|fol-|l'wing God|
w: * hanc-|ing,|dark- ness|shall _ not|en- ter|in|where|faith its|
w: * ly|Son,|give praise|to _ the|Ho- ly|Ghost,|now|and in|
 G,4 (D,4- | D,2 C,2) C,4 |"^(""^)" G,,4 x4 |] %18
w: such birth|_ _ com-|mands.|
w: God's heav'n-|* * ly|seat.|
w: the Fa-|* * ther's|plan.|
w: light will|_ _ out-|shine.|
w: e- ter-|* * ni-|ty!|
V:6
 x4 | x8 | x8 | x8 |[M:2/4] x4 |[M:2/2] x8 | x8 | x8 | x8 | x8 | x8 | x8 | x8 | x8 | x8 | x8 | x8 | %17
 G,4 x4 |] %18

